dist/intermediate-svg/comments.svg

<?xml version="1.0" encoding="utf-8"?><svg xmlns="http://www.w3.org/2000/svg" viewBox="0 0 23 16" width="23" height="16"><path class="fill comment1" d="M9 0a2 2 0 00-2 2v8a2 2 0 002 2h14l-3-2.25V2a2 2 0 00-2-2z" fill-rule="evenodd"/><path class="fill comment2" d="M14 4a2 2 0 012 2v8a2 2 0 01-2 2H0l3-2.25V6a2 2 0 012-2z" fill-rule="evenodd"/><path class="fill white" d="M6 7h7v1H6zM6 9h7v1H6zM6 11h7v1H6z"/></svg>

<?xml version="1.0" encoding="utf-8"?><svg xmlns="http://www.w3.org/2000/svg" viewBox="0 0 23 16" width="23" height="16"><path d="M9,0A2,2,0,0,0,7,2v8a2,2,0,0,0,2,2H23L20,9.75V2a2,2,0,0,0-2-2Z" fill="var(--svg-icon-fill, #000)" fill-rule="evenodd"/><path d="M14,4a2,2,0,0,1,2,2v8a2,2,0,0,1-2,2H0l3-2.25V6A2,2,0,0,1,5,4Z" fill="var(--svg-icon-fill, #000)" fill-rule="evenodd"/><path fill="var(--svg-icon-fill, #000)" d="M6 7H13V8H6zM6 9H13V10H6zM6 11H13V12H6z"/></svg>
